;FLAVOR:Marlin
;TIME:2893
;Filament used: 1.39171m
;Layer height: 0.2
;MINX:56.51
;MINY:94.643
;MINZ:0.2
;MAXX:178.49
;MAXY:140.333
;MAXZ:10
;Generated with Cura_SteamEngine 4.11.0
M140 S50
M105
M190 S50
M104 S230
M105
M109 S230
M82 ;absolute extrusion mode
; Ender 3 Custom Start G-code
G92 E0 ; Reset Extruder
G28 ; Home all axes
G1 Z2.0 F3000 ; Move Z Axis up little to prevent scratching of Heat Bed
G1 X0.1 Y20 Z0.3 F5000.0 ; Move to start position
G1 X0.1 Y200.0 Z0.3 F1500.0 E15 ; Draw the first line
G1 X0.4 Y200.0 Z0.3 F5000.0 ; Move to side a little
G1 X0.4 Y20 Z0.3 F1500.0 E30 ; Draw the second line
G92 E0 ; Reset Extruder
G1 Z2.0 F3000 ; Move Z Axis up little to prevent scratching of Heat Bed
G1 X5 Y20 Z0.3 F5000.0 ; Move over to prevent blob squish
G92 E0
G92 E0
G1 F2700 E-5
;LAYER_COUNT:50
;LAYER:0
M107
G0 F6000 X64.136 Y101.242 Z0.2
;TYPE:SKIRT
G1 F2700 E0
G1 F1200 X64.976 Y100.708 E0.03311
G1 X65.282 Y100.532 E0.04485
G1 X65.542 Y100.387 E0.05475
G1 X66.253 Y100.004 E0.08161
G1 X66.561 Y99.845 E0.09314
G1 X67.113 Y99.569 E0.11366
G1 X67.969 Y99.186 E0.14486
G1 X68.854 Y98.877 E0.17603
G1 X69.763 Y98.645 E0.20724
G1 X70.688 Y98.49 E0.23843
G1 X71.623 Y98.416 E0.26963
G1 X72.215 Y98.41 E0.28932
G1 X73.102 Y98.426 E0.31882
G1 X74.046 Y98.456 E0.35024
G1 X74.789 Y98.49 E0.37497
G1 X75.723 Y98.573 E0.40616
G1 X76.647 Y98.735 E0.43736
G1 X77.553 Y98.975 E0.46854
G1 X78.398 Y99.276 E0.49837
G1 X79.135 Y99.573 E0.5248
G1 X80.257 Y100.046 E0.5653
G1 X82.645 Y100.973 E0.6505
G1 X84.976 Y101.804 E0.73281
G1 X87.413 Y102.595 E0.81802
G1 X89.778 Y103.29 E0.90001
G1 X92.24 Y103.938 E0.98469
G1 X94.709 Y104.515 E1.06902
G1 X97.151 Y105.01 E1.15189
G1 X99.67 Y105.449 E1.23694
G1 X102.122 Y105.806 E1.31935
G1 X104.603 Y106.094 E1.40242
G1 X107.136 Y106.317 E1.487
G1 X109.652 Y106.467 E1.57083
G1 X112.173 Y106.545 E1.65472
G1 X114.697 Y106.553 E1.73866
G1 X117.186 Y106.489 E1.82148
G1 X119.704 Y106.354 E1.90535
G1 X122.23 Y106.146 E1.98965
G1 X124.728 Y105.869 E2.07324
G1 X127.193 Y105.525 E2.15602
G1 X129.694 Y105.104 E2.24037
G1 X132.172 Y104.615 E2.32438
G1 X134.593 Y104.064 E2.40696
G1 X137.076 Y103.427 E2.49222
G1 X139.455 Y102.742 E2.57456
G1 X141.892 Y101.966 E2.65963
G1 X144.247 Y101.142 E2.74261
G1 X146.592 Y100.247 E2.82609
G1 X148.953 Y99.267 E2.91112
G1 X151.223 Y98.25 E2.99385
G1 X153.483 Y97.16 E3.0773
G1 X154.226 Y96.773 E3.10517
G1 X155.486 Y96.138 E3.1521
G1 X156.341 Y95.752 E3.1833
G1 X157.226 Y95.44 E3.21451
G1 X158.134 Y95.205 E3.2457
G1 X158.686 Y95.101 E3.26438
G1 X159.393 Y94.987 E3.2882
G1 X160.449 Y94.833 E3.3237
G1 X161.251 Y94.727 E3.3506
G1 X162.185 Y94.645 E3.38179
G1 X163.123 Y94.643 E3.41299
G1 X164.057 Y94.721 E3.44416
G1 X164.982 Y94.878 E3.47537
G1 X165.89 Y95.114 E3.50657
G1 X166.445 Y95.299 E3.52603
G1 X167.139 Y95.552 E3.5506
G1 X167.425 Y95.661 E3.56078
G1 X168.212 Y95.973 E3.58893
G1 X168.604 Y96.137 E3.60307
G1 X168.69 Y96.175 E3.60619
G1 X169.461 Y96.553 E3.63475
G1 X169.784 Y96.727 E3.64696
G1 X170.087 Y96.896 E3.6585
G1 X170.218 Y96.972 E3.66353
G1 X171.038 Y97.498 E3.69593
G1 X171.401 Y97.754 E3.71071
G1 X171.799 Y98.048 E3.72717
G1 X171.99 Y98.196 E3.7352
G1 X172.59 Y98.697 E3.7612
G1 X172.849 Y98.932 E3.77283
G1 X173.144 Y99.209 E3.78629
G1 X173.576 Y99.638 E3.80654
G1 X173.678 Y99.745 E3.81146
G1 X174.035 Y100.138 E3.82912
G1 X174.298 Y100.442 E3.84249
G1 X174.659 Y100.882 E3.86142
G1 X174.782 Y101.04 E3.86808
G1 X175.12 Y101.499 E3.88704
G1 X175.252 Y101.688 E3.8947
G1 X175.623 Y102.254 E3.91721
G1 X175.996 Y102.865 E3.94102
G1 X176.494 Y103.775 E3.97552
G1 X176.712 Y104.222 E3.99207
G1 X176.874 Y104.57 E4.00483
G1 X176.939 Y104.716 E4.01015
G1 X177.151 Y105.226 E4.02852
G1 X177.287 Y105.578 E4.04107
G1 X177.4 Y105.883 E4.05189
G1 X177.485 Y106.124 E4.06039
G1 X177.685 Y106.753 E4.08234
G1 X177.785 Y107.102 E4.09441
G1 X177.868 Y107.408 E4.10496
G1 X177.936 Y107.674 E4.11409
G1 X178.028 Y108.061 E4.12732
G1 X178.088 Y108.337 E4.13672
G1 X178.185 Y108.837 E4.15366
G1 X178.248 Y109.209 E4.1662
G1 X178.309 Y109.617 E4.17993
G1 X178.339 Y109.846 E4.18761
G1 X178.387 Y110.279 E4.2021
G1 X178.427 Y110.719 E4.21679
G1 X178.454 Y111.09 E4.22916
G1 X178.466 Y111.301 E4.23619
G1 X178.483 Y111.762 E4.25154
G1 X178.49 Y112.231 E4.26714
G1 X178.48 Y112.894 E4.28919
G1 X178.466 Y113.202 E4.29945
G1 X178.416 Y113.855 E4.32123
G1 X178.319 Y114.776 E4.35203
G1 X178.274 Y115.149 E4.36453
G1 X178.26 Y115.249 E4.36789
G1 X178.155 Y115.867 E4.38873
G1 X178.099 Y116.149 E4.3983
G1 X178.047 Y116.396 E4.40669
G1 X177.97 Y116.742 E4.41848
G1 X177.876 Y117.131 E4.43179
G1 X177.829 Y117.311 E4.43798
G1 X177.704 Y117.752 E4.45323
G1 X177.565 Y118.206 E4.46902
G1 X177.428 Y118.624 E4.48365
G1 X177.353 Y118.838 E4.49119
G1 X177.193 Y119.266 E4.50639
G1 X177.045 Y119.638 E4.5197
G1 X176.836 Y120.129 E4.53745
G1 X176.709 Y120.408 E4.54765
G1 X176.548 Y120.746 E4.5601
G1 X176.389 Y121.066 E4.57198
G1 X176.167 Y121.489 E4.58787
G1 X176.056 Y121.69 E4.59551
G1 X175.875 Y122.005 E4.60759
G1 X175.717 Y122.27 E4.61786
G1 X175.325 Y122.882 E4.64203
G1 X175.014 Y123.333 E4.66025
G1 X174.75 Y123.701 E4.67531
G1 X174.322 Y124.25 E4.69847
G1 X174.109 Y124.506 E4.70954
G1 X173.901 Y124.749 E4.72018
G1 X173.388 Y125.301 E4.74525
G1 X172.856 Y125.836 E4.77034
G1 X172.074 Y126.55 E4.80556
G1 X171.594 Y126.929 E4.8259
G1 X171.056 Y127.327 E4.84816
G1 X169.744 Y128.272 E4.90194
G1 X167.753 Y129.795 E4.98531
G1 X165.791 Y131.384 E5.06928
G1 X163.921 Y132.987 E5.15121
G1 X163.759 Y133.129 E5.15837
G1 X163.224 Y133.571 E5.18145
G1 X162.682 Y133.99 E5.20424
G1 X161.868 Y134.562 E5.23733
G1 X161.73 Y134.65 E5.24277
G1 X161.27 Y134.927 E5.26063
G1 X160.932 Y135.12 E5.27358
G1 X160.337 Y135.437 E5.296
G1 X160.207 Y135.501 E5.30082
G1 X159.759 Y135.709 E5.31725
G1 X159.414 Y135.86 E5.32977
G1 X158.539 Y136.199 E5.36098
G1 X157.639 Y136.462 E5.39217
G1 X156.72 Y136.648 E5.42335
G1 X155.788 Y136.755 E5.45456
G1 X154.85 Y136.782 E5.48577
G1 X153.914 Y136.729 E5.51695
G1 X152.692 Y136.538 E5.55809
G1 X151.575 Y136.298 E5.59609
G1 X149.065 Y135.792 E5.68125
G1 X146.591 Y135.367 E5.76474
G1 X144.093 Y135.009 E5.84867
G1 X141.593 Y134.724 E5.93236
G1 X139.089 Y134.509 E6.01595
G1 X136.557 Y134.364 E6.1003
G1 X134.07 Y134.292 E6.18306
G1 X131.545 Y134.29 E6.26704
G1 X129.044 Y134.359 E6.35025
G1 X125.253 Y134.597 E6.47659
G1 X123.97 Y134.703 E6.51941
G1 X120.688 Y134.94 E6.62885
G1 X119.72 Y134.996 E6.6611
G1 X119.455 Y135.008 E6.66993
G1 X119.054 Y135.021 E6.68327
G1 X115.794 Y135.1 E6.79173
G1 X114.75 Y135.111 E6.82645
G1 X114.484 Y135.111 E6.8353
G1 X113.917 Y135.103 E6.85416
G1 X111.343 Y135.103 E6.93977
G1 X108.786 Y135.175 E7.02485
G1 X106.322 Y135.315 E7.10694
G1 X103.769 Y135.531 E7.19216
G1 X101.313 Y135.811 E7.27437
G1 X98.793 Y136.169 E7.35903
G1 X96.294 Y136.598 E7.44336
G1 X93.844 Y137.089 E7.52647
G1 X91.434 Y137.643 E7.60872
G1 X88.953 Y138.289 E7.69399
G1 X86.536 Y138.991 E7.7777
G1 X84.066 Y139.785 E7.86399
G1 X83.161 Y140.034 E7.89521
G1 X82.239 Y140.205 E7.9264
G1 X81.534 Y140.281 E7.94998
G1 X81.271 Y140.301 E7.95876
G1 X80.334 Y140.333 E7.98994
G1 X79.397 Y140.284 E8.02115
G1 X78.468 Y140.155 E8.05234
G1 X77.553 Y139.948 E8.08354
G1 X76.702 Y139.68 E8.11322
G1 X76.328 Y139.545 E8.12644
G1 X75.429 Y139.174 E8.15879
G1 X75.147 Y139.043 E8.16913
G1 X74.824 Y138.887 E8.18106
G1 X74.616 Y138.782 E8.18881
G1 X73.861 Y138.363 E8.21753
G1 X73.652 Y138.236 E8.22567
G1 X73.385 Y138.068 E8.23616
G1 X73.141 Y137.91 E8.24583
G1 X72.621 Y137.552 E8.26682
G1 X71.816 Y136.961 E8.30004
G1 X70.948 Y136.306 E8.33621
G1 X68.884 Y134.841 E8.42039
G1 X66.81 Y133.455 E8.50336
G1 X65.007 Y132.316 E8.57429
G1 X64.423 Y131.955 E8.59712
G1 X63.43 Y131.264 E8.63736
G1 X63.293 Y131.157 E8.64314
G1 X62.83 Y130.775 E8.66311
G1 X62.523 Y130.507 E8.67666
G1 X62.041 Y130.06 E8.69853
G1 X61.915 Y129.936 E8.7044
G1 X61.56 Y129.569 E8.72139
G1 X61.335 Y129.326 E8.7324
G1 X60.883 Y128.807 E8.75529
G1 X60.533 Y128.378 E8.77371
G1 X59.942 Y127.583 E8.80666
G1 X59.571 Y127.034 E8.82869
G1 X59.295 Y126.605 E8.84566
G1 X59.033 Y126.158 E8.86289
G1 X58.823 Y125.78 E8.87728
G1 X58.641 Y125.439 E8.89013
G1 X58.543 Y125.247 E8.8973
G1 X58.305 Y124.748 E8.91569
G1 X58.161 Y124.427 E8.92739
G1 X58.011 Y124.079 E8.93999
G1 X57.821 Y123.607 E8.95692
G1 X57.787 Y123.519 E8.96006
G1 X57.644 Y123.126 E8.97397
G1 X57.475 Y122.625 E8.99155
G1 X57.36 Y122.26 E9.00428
G1 X57.226 Y121.803 E9.02012
G1 X57.101 Y121.321 E9.03668
G1 X56.987 Y120.837 E9.05322
G1 X56.919 Y120.527 E9.06378
G1 X56.88 Y120.337 E9.07023
G1 X56.783 Y119.796 E9.08851
G1 X56.708 Y119.308 E9.10493
G1 X56.66 Y118.961 E9.11658
G1 X56.636 Y118.763 E9.12321
G1 X56.587 Y118.266 E9.13982
G1 X56.549 Y117.762 E9.15663
G1 X56.523 Y117.307 E9.17179
G1 X56.51 Y116.771 E9.18963
G1 X56.51 Y116.259 E9.20665
G1 X56.515 Y115.939 E9.2173
G1 X56.52 Y115.767 E9.22302
G1 X56.543 Y115.298 E9.23864
G1 X56.582 Y114.756 E9.25671
G1 X56.616 Y114.38 E9.26927
G1 X56.634 Y114.211 E9.27492
G1 X56.696 Y113.732 E9.29099
G1 X56.766 Y113.269 E9.30656
G1 X56.816 Y112.965 E9.31681
G1 X56.85 Y112.776 E9.3232
G1 X56.952 Y112.274 E9.34023
G1 X57.066 Y111.775 E9.35726
G1 X57.146 Y111.448 E9.36845
G1 X57.188 Y111.287 E9.37399
G1 X57.34 Y110.76 E9.39223
G1 X57.471 Y110.344 E9.40674
G1 X57.66 Y109.794 E9.42608
G1 X57.807 Y109.401 E9.44004
G1 X57.928 Y109.092 E9.45107
G1 X58.029 Y108.845 E9.45995
G1 X58.192 Y108.467 E9.47364
G1 X58.289 Y108.253 E9.48146
G1 X58.495 Y107.823 E9.49731
G1 X58.65 Y107.517 E9.50872
G1 X58.969 Y106.933 E9.53086
G1 X59.213 Y106.516 E9.54692
G1 X59.424 Y106.169 E9.56043
G1 X59.802 Y105.604 E9.58304
G1 X60.17 Y105.089 E9.60409
G1 X60.809 Y104.278 E9.63844
G1 X61.2 Y103.827 E9.65829
G1 X61.675 Y103.313 E9.68157
G1 X61.874 Y103.111 E9.691
G1 X62.468 Y102.551 E9.71815
G1 X62.771 Y102.286 E9.73154
G1 X63.397 Y101.778 E9.75835
G1 X63.575 Y101.644 E9.76576
G1 X63.867 Y101.431 E9.77778
G1 X64.136 Y101.242 E9.78872
G0 F6000 X64.366 Y101.57
G1 F1200 X65.175 Y101.054 E9.82063
G1 X65.481 Y100.878 E9.83237
G1 X65.732 Y100.739 E9.84192
G1 X66.438 Y100.359 E9.86858
G1 X66.74 Y100.203 E9.87989
G1 X67.292 Y99.927 E9.90042
G1 X68.132 Y99.551 E9.93103
G1 X69.002 Y99.25 E9.96164
G1 X69.895 Y99.026 E9.99227
G1 X70.804 Y98.879 E10.02289
G1 X71.722 Y98.813 E10.0535
G1 X72.208 Y98.809 E10.06967
G1 X73.09 Y98.825 E10.09901
G1 X74.028 Y98.856 E10.13022
G1 X74.771 Y98.89 E10.15496
G1 X75.688 Y98.972 E10.18558
G1 X76.594 Y99.133 E10.21619
G1 X77.483 Y99.373 E10.24682
G1 X78.248 Y99.647 E10.27384
G1 X79.143 Y100.009 E10.30595
G1 X80.136 Y100.428 E10.3418
G1 X82.502 Y101.347 E10.42622
G1 X84.866 Y102.189 E10.50969
G1 X87.24 Y102.961 E10.59272
G1 X89.702 Y103.684 E10.67806
G1 X92.161 Y104.331 E10.76263
G1 X94.61 Y104.903 E10.84628
G1 X97.074 Y105.402 E10.92989
G1 X99.575 Y105.838 E11.01433
G1 X102.089 Y106.204 E11.09883
G1 X104.593 Y106.495 E11.18267
G1 X107.113 Y106.717 E11.26681
G1 X109.614 Y106.866 E11.35015
G1 X112.16 Y106.945 E11.43487
G1 X114.67 Y106.953 E11.51835
G1 X117.217 Y106.888 E11.60309
G1 X119.759 Y106.751 E11.68776
G1 X122.236 Y106.547 E11.77042
G1 X124.791 Y106.264 E11.85592
G1 X127.248 Y105.921 E11.93844
G1 X129.794 Y105.492 E12.02431
G1 X132.24 Y105.009 E12.10724
G1 X134.702 Y104.449 E12.19121
G1 X137.148 Y103.822 E12.2752
G1 X139.614 Y103.112 E12.36055
G1 X142.008 Y102.35 E12.44411
G1 X144.386 Y101.518 E12.5279
G1 X146.74 Y100.619 E12.61171
G1 X149.103 Y99.638 E12.69681
G1 X151.368 Y98.623 E12.77936
G1 X153.662 Y97.516 E12.86408
G1 X154.407 Y97.13 E12.89199
G1 X155.667 Y96.495 E12.93892
G1 X156.506 Y96.117 E12.96953
G1 X157.375 Y95.813 E13.00015
G1 X158.267 Y95.585 E13.03077
G1 X158.75 Y95.496 E13.0471
G1 X159.623 Y95.357 E13.0765
G1 X160.653 Y95.208 E13.11112
G1 X161.303 Y95.123 E13.13292
G1 X162.22 Y95.044 E13.16353
G1 X163.14 Y95.044 E13.19413
G1 X164.058 Y95.124 E13.22478
G1 X164.964 Y95.284 E13.25538
G1 X165.854 Y95.521 E13.28602
G1 X166.308 Y95.675 E13.30196
G1 X167.002 Y95.928 E13.32653
G1 X167.277 Y96.033 E13.33632
G1 X168.064 Y96.345 E13.36448
G1 X168.442 Y96.503 E13.3781
G1 X168.528 Y96.541 E13.38123
G1 X169.271 Y96.905 E13.40875
G1 X169.594 Y97.079 E13.42095
G1 X169.886 Y97.242 E13.43208
G1 X170.017 Y97.318 E13.43711
G1 X170.807 Y97.824 E13.46832
G1 X171.17 Y98.08 E13.48309
G1 X171.554 Y98.364 E13.49897
G1 X171.745 Y98.512 E13.50701
G1 X172.323 Y98.995 E13.53206
G1 X172.575 Y99.224 E13.54339
G1 X172.87 Y99.501 E13.55685
G1 X173.286 Y99.914 E13.57635
G1 X173.388 Y100.021 E13.58126
G1 X173.732 Y100.4 E13.59829
G1 X173.995 Y100.704 E13.61166
G1 X174.343 Y101.128 E13.6299
G1 X174.466 Y101.286 E13.63656
G1 X174.792 Y101.728 E13.65483
G1 X174.924 Y101.917 E13.66249
G1 X175.281 Y102.463 E13.68419
G1 X175.654 Y103.074 E13.708
G1 X176.134 Y103.951 E13.74125
G1 X176.352 Y104.398 E13.75779
G1 X176.509 Y104.733 E13.7701
G1 X176.574 Y104.879 E13.77542
G1 X176.778 Y105.37 E13.7931
G1 X176.914 Y105.722 E13.80565
G1 X177.022 Y106.016 E13.81607
G1 X177.107 Y106.257 E13.82457
G1 X177.301 Y106.863 E13.84573
G1 X177.401 Y107.212 E13.85781
G1 X177.481 Y107.507 E13.86797
G1 X177.549 Y107.773 E13.8771
G1 X177.637 Y108.146 E13.88985
G1 X177.697 Y108.422 E13.89924
G1 X177.79 Y108.904 E13.91557
G1 X177.853 Y109.276 E13.92812
G1 X177.912 Y109.669 E13.94134
G1 X177.942 Y109.898 E13.94902
G1 X177.988 Y110.315 E13.96297
G1 X178.028 Y110.755 E13.97767
G1 X178.055 Y111.113 E13.98961
G1 X178.067 Y111.324 E13.99664
G1 X178.083 Y111.768 E14.01142
G1 X178.09 Y112.237 E14.02702
G1 X178.08 Y112.876 E14.04827
G1 X178.066 Y113.184 E14.05853
G1 X178.019 Y113.813 E14.07951
G1 X177.922 Y114.734 E14.11031
G1 X177.864 Y115.194 E14.12573
G1 X177.763 Y115.789 E14.1458
G1 X177.707 Y116.071 E14.15536
G1 X177.657 Y116.309 E14.16345
G1 X177.58 Y116.655 E14.17524
G1 X177.489 Y117.03 E14.18808
G1 X177.442 Y117.21 E14.19426
G1 X177.322 Y117.635 E14.20895
G1 X177.183 Y118.089 E14.22474
G1 X177.05 Y118.492 E14.23886
G1 X176.975 Y118.706 E14.2464
G1 X176.821 Y119.118 E14.26103
G1 X176.673 Y119.49 E14.27435
G1 X176.472 Y119.964 E14.29147
G1 X176.345 Y120.243 E14.30167
G1 X176.19 Y120.568 E14.31364
G1 X176.031 Y120.888 E14.32553
G1 X175.817 Y121.295 E14.34082
G1 X175.706 Y121.496 E14.34846
G1 X175.532 Y121.8 E14.36011
G1 X175.374 Y122.065 E14.37037
G1 X174.995 Y122.655 E14.39369
G1 X174.684 Y123.106 E14.41191
G1 X174.519 Y123.339 E14.42141
G1 X174.427 Y123.465 E14.4266
G1 X174.014 Y123.994 E14.44892
G1 X173.801 Y124.25 E14.46
G1 X173.598 Y124.487 E14.47038
G1 X173.104 Y125.019 E14.49452
G1 X172.572 Y125.554 E14.51962
G1 X171.842 Y126.223 E14.55255
G1 X171.355 Y126.608 E14.5732
G1 X170.822 Y127.002 E14.59524
G1 X169.513 Y127.945 E14.6489
G1 X167.526 Y129.465 E14.73211
G1 X165.52 Y131.089 E14.81795
G1 X163.682 Y132.664 E14.89846
G1 X163.495 Y132.829 E14.90675
G1 X162.979 Y133.254 E14.92899
G1 X162.437 Y133.673 E14.95177
G1 X161.653 Y134.224 E14.98365
G1 X161.515 Y134.312 E14.98909
G1 X161.072 Y134.58 E15.00631
G1 X160.734 Y134.773 E15.01926
G1 X160.16 Y135.078 E15.04088
G1 X160.03 Y135.142 E15.04569
G1 X159.598 Y135.343 E15.06154
G1 X159.253 Y135.494 E15.07407
G1 X158.395 Y135.826 E15.10467
G1 X157.51 Y136.082 E15.13531
G1 X156.607 Y136.261 E15.16593
G1 X155.692 Y136.361 E15.19654
G1 X154.771 Y136.38 E15.22718
G1 X153.853 Y136.32 E15.25778
G1 X152.776 Y136.147 E15.29406
G1 X151.66 Y135.907 E15.33203
G1 X149.14 Y135.399 E15.41753
G1 X146.649 Y134.971 E15.50159
G1 X144.158 Y134.614 E15.58529
G1 X141.601 Y134.322 E15.67089
G1 X139.145 Y134.112 E15.75287
G1 X136.591 Y133.966 E15.83796
G1 X134.047 Y133.892 E15.92261
G1 X131.534 Y133.89 E16.00619
G1 X129.036 Y133.959 E16.08931
G1 X125.191 Y134.2 E16.21744
G1 X123.941 Y134.304 E16.25916
G1 X120.665 Y134.54 E16.3684
G1 X119.697 Y134.596 E16.40065
G1 X119.442 Y134.608 E16.40914
G1 X119.045 Y134.621 E16.42236
G1 X115.785 Y134.7 E16.53082
G1 X114.746 Y134.711 E16.56538
G1 X114.489 Y134.711 E16.57392
G1 X113.922 Y134.703 E16.59278
G1 X111.332 Y134.703 E16.67893
G1 X108.786 Y134.775 E16.76364
G1 X106.266 Y134.918 E16.84759
G1 X103.761 Y135.13 E16.93121
G1 X101.248 Y135.416 E17.01533
G1 X98.707 Y135.777 E17.10069
